public/img/search/search-slim.svg

<svg xmlns="http://www.w3.org/2000/svg" xmlns:xlink="http://www.w3.org/1999/xlink" preserveAspectRatio="xMidYMid" width="26" height="26" viewBox="0 0 26 26">
  <defs>
    <style>
      .cls-1 {
        fill: #9a9a9a;
        fill-rule: evenodd;
      }
    </style>
  </defs>
  <path d="M26.010,24.542 L24.552,26.000 L16.842,18.286 C15.064,19.747 12.788,20.625 10.307,20.625 C4.615,20.625 0.000,16.009 0.000,10.314 C0.000,4.618 4.615,0.001 10.307,0.001 C15.999,0.001 20.614,4.618 20.614,10.314 C20.614,12.784 19.744,15.049 18.296,16.825 L26.010,24.542 ZM10.307,2.062 C5.753,2.062 2.062,5.757 2.062,10.314 C2.062,14.870 5.753,18.564 10.307,18.564 C14.861,18.564 18.553,14.870 18.553,10.314 C18.553,5.757 14.861,2.062 10.307,2.062 Z" class="cls-1"/>
</svg>

<svg xmlns="http://www.w3.org/2000/svg" width="26" height="26" preserveAspectRatio="xMidYMid"><defs><style>.cls-1 { fill: #9a9a9a; fill-rule: evenodd; }</style></defs><path d="M26 24.54L24.56 26l-7.7-7.7c-1.8 1.45-4.06 2.32-6.54 2.32-5.7 0-10.3-4.6-10.3-10.3C0 4.6 4.62 0 10.3 0 16 0 20.6 4.62 20.6 10.3c0 2.48-.86 4.75-2.3 6.52l7.7 7.72zM10.3 2.06c-4.55 0-8.24 3.7-8.24 8.25 0 4.57 3.7 8.26 8.25 8.26 4.56 0 8.25-3.7 8.25-8.25 0-4.54-3.7-8.24-8.24-8.24z" class="cls-1"/></svg>
